X:39011
T: Brumley Brae
C: William McPherson
R: reel
B: RSCDS 39-1
B: The Scots Fiddle, J Murray Neil (Moffat 1991)
Z: 1997 by John Chambers <jc:trillian.mit.edu>
M: 4/4
L: 1/8
%--------------------
K: D
A2 \
| "D"d2cd AFDd | cdAF DFAF | "Em"E2EF GFED | CEGB "A7"=cA^cA |
| "D"d2cd AFDd | cdAF DFAF | "Em"Begf "E7"edcB | "A7"AGFE "D"D2 ||
|| a2 \
| "D"^gafd Aaga | fdAa ^gafd | "Em"eBBe bagf | "E7"edcB "A7"A^ABc |
| "D"d2cd AFDd | cdAF DFAF | "G"GB,DB, "A7"A,CEG | "D"F2"G"D2 "D"D2 |]
